public/static/img/crypto1/ETH.svg

<svg width="32" height="32" viewBox="0 0 32 32" fill="none" xmlns="http://www.w3.org/2000/svg">
<g clip-path="url(#clip0_696_7389)">
<path d="M16.0032 0.0126953C24.8372 0.0126953 31.9969 7.1724 31.9969 16.0064C31.9969 24.8405 24.8372 32.0002 16.0032 32.0002C7.1691 32.0002 0.00939941 24.8405 0.00939941 16.0064C0.00939941 7.1724 7.17223 0.0126953 16.0032 0.0126953Z" fill="#3E5BF2"/>
<path d="M16.0063 4.60156V20.5391L23.0098 16.3407L16.0063 4.60156ZM16.0063 27.4114L23.0098 17.356L16.0063 21.5918V27.4114ZM16.0063 4.60156V20.5391L8.99963 16.3407L16.0063 4.60156Z" fill="white"/>
<path d="M16.0063 21.5918V27.4114L8.99963 17.356L16.0063 21.5918Z" fill="white"/>
</g>
<defs>
<clipPath id="clip0_696_7389">
<rect width="32" height="32" fill="white"/>
</clipPath>
</defs>
</svg>

<svg width="32" height="32" fill="none" xmlns="http://www.w3.org/2000/svg"><g clip-path="url(#a)"><path d="M16.003.013c8.834 0 15.994 7.16 15.994 15.993C31.997 24.84 24.837 32 16.003 32S.01 24.84.01 16.006 7.172.013 16.003.013Z" fill="#3E5BF2"/><path d="M16.006 4.602v15.937l7.004-4.198L16.006 4.6Zm0 22.81 7.004-10.056-7.004 4.236v5.82Zm0-22.81v15.937L9 16.341 16.006 4.6Z" fill="#fff"/><path d="M16.006 21.592v5.82L9 17.355l7.006 4.236Z" fill="#fff"/></g><defs><clipPath id="a"><path fill="#fff" d="M0 0h32v32H0z"/></clipPath></defs></svg>
